X:1
T:Title
%%score { ( 1 4 ) | ( 2 3 ) }
L:1/8
Q:1/4=100
M:4/4
K:G
V:1 treble nm="Grand Piano"
V:4 treble 
V:2 bass 
V:3 bass 
V:1
 [DB]2 [DB]>[Ec] [DB][CA][B,G][DF] | [CA]2 [B,G]2 [B,D]4 | [B,D]2 G>A GGFG | [GB]2 [FA]2 [FA]4 | %4
w: Wm.~J.~Kirkpatrick * * * * * *||||
 B2 B>c dBGD | F2 E2 E4 | [B,D]2 G>A GAB[EGc] | [DGB]2 .[CFA]2 [B,DG]4 | [Bd]6 z2 | [Bd]6 z2 | %10
w: ||||||
 [Ac]2 [Ac]>[GB] [FA][FA][FA][FA] | B2 ^c2 [Fd]4 | dd d>e d2 B2 | [DB][DA][G,DG][G,DF] [G,CE]4 | %14
w: ||||
 [G,B,D]2 [B,DG]>[CDA] [B,DG][CDA][DGB][EGc] | [DGB]2 .[CFA]2 [B,DG]4 |] %16
w: ||
V:2
 [G,,G,]2 [G,,G,]>[G,,G,] [G,,G,][G,,D,][G,,D,][G,,D,] | [G,,D,]2 [G,,D,]2 [G,,G,]4 | %2
 [G,,G,]2 [G,B,D]>[G,CD] [G,B,D][G,B,D][A,CD][G,B,D] | [D,D]2 [D,D]2 [D,D]4 | %4
 [G,DG]2 [G,DG]>[G,CG] [G,B,G][G,D][K:bass][G,B,D][G,B,] | [C,G,D]2 [C,G,C]2 [C,G,C]4 | %6
 [G,,G,]2[K:treble] [G,B,D]>[G,CD] [G,B,D][G,CD][G,DG][K:bass]C, | D,2 z D G,,4 | %8
 G,2 G,>G, G,G,[K:treble] G>A | G,2 G,>G, G,G, G2 | [D,D]2 [D,D]>[D,D] [D,D][D,D][D,D][D,D] | %11
 [G,DG]2 [A,G]2 [D,A,]4 | [G,B,G][G,B,G] [G,B,G]>[G,CG] [G,B,G]2[K:bass] [G,D]2 | %13
 [G,,G,][A,,G,]B,,B,, C,4 | G,,2 G,>G, G,G,G,C, | D,2 z D G,,4 |] %16
V:3
 x8 | x8 | x8 | x8 | x6[K:bass] x2 | x8 | x2[K:treble] x5[K:bass] x | z2 D,2 z4 | x6[K:treble] x2 | %9
 x8 | x8 | x8 | x6[K:bass] x2 | x8 | x8 | z2 D,2 z4 |] %16
V:4
 x8 | x8 | x8 | x8 | x8 | x8 | x8 | x8 | D2 D>D DD B>c | D2 D>D DD B2 | x8 | x8 | x8 | x8 | x8 | %15
 x8 |] %16

